packs/brands/unity.svg

<svg xmlns="http://www.w3.org/2000/svg" viewBox="0 0 448 512"><!--! Font Awesome Free 6.5.2 by @fontawesome - https://fontawesome.com License - https://fontawesome.com/license/free (Icons: CC BY 4.0, Fonts: SIL OFL 1.1, Code: MIT License) Copyright 2024 Fonticons, Inc.--><path d="m243.583 91.603 80.112 46.781c2.88 1.642 2.985 6.199 0 7.841l-95.192 55.629a8.75 8.75 0 0 1-8.954 0l-95.192-55.629c-2.932-1.589-2.984-6.252 0-7.841l80.06-46.781V0L0 119.417v238.835l78.384-45.775v-93.563c-.052-3.338 3.823-5.722 6.703-3.921l95.192 55.629a9.09 9.09 0 0 1 4.503 7.842v111.205c.052 3.338-3.823 5.722-6.703 3.92l-80.112-46.781-78.384 45.775L224 512l204.417-119.417-78.384-45.775-80.112 46.781c-2.828 1.749-6.807-.529-6.703-3.92V278.464c0-3.338 1.833-6.305 4.503-7.842l95.193-55.629c2.827-1.748 6.806.477 6.702 3.921v93.563L448 358.252V119.417L243.583 0z"/></svg>

<svg xmlns="http://www.w3.org/2000/svg" viewBox="0 0 448 512"><!--! Font Awesome Free 6.5.2 by @fontawesome - https://fontawesome.com License - https://fontawesome.com/license/free (Icons: CC BY 4.0, Fonts: SIL OFL 1.1, Code: MIT License) Copyright 2024 Fonticons, Inc. --><path d="M243.583 91.6027L323.695 138.384C326.575 140.026 326.68 144.583 323.695 146.225L228.503 201.854C225.623 203.55 222.22 203.444 219.549 201.854L124.357 146.225C121.425 144.636 121.373 139.973 124.357 138.384L204.417 91.6027V0L0 119.417V358.252L78.3843 312.477V218.914C78.3319 215.576 82.2066 213.192 85.0865 214.993L180.279 270.622C183.159 272.318 184.782 275.338 184.782 278.464V389.669C184.834 393.007 180.959 395.391 178.079 393.589L97.9673 346.808L19.583 392.583L224 512L428.417 392.583L350.033 346.808L269.921 393.589C267.093 395.338 263.114 393.06 263.218 389.669V278.464C263.218 275.126 265.051 272.159 267.721 270.622L362.914 214.993C365.741 213.245 369.72 215.47 369.616 218.914V312.477L448 358.252V119.417L243.583 0V91.6027Z"/></svg>
